X:18657
T:When I Parted. BF12.30
M:6/8
L:1/8
Q:120
C:Browne "C" hand
S:MS12,c1835,Browne Coll.,Lakes
R:Jig
O:England
A:Lakes
N:The bars indicated are distinctly odd CGP
Z:vmp.Chris Partington.
K:G
F|E2B B-G.E|D2d A-F.D|E2B B-G.E|G-F.Ee2f|!
.g.f.e .d.c.B|.A.F.d .A.F.D|E2B BGB|AGFE2:|!
|:B|e-B.e g-b.e|d-A.d f-g.f|e-B.e g-b.e|f-a.f g-f.e|
e-B.e g-b.e|!"two spare bars............................................
..?"
e-B.e g-be|.f.b.f .g.f.e.|
.d.^c.d .A.F.D|E-F.G A-B.c|B-G.FE2:|]


